X: 1
T: Gneevgullia
M: 4/4
L: 1/8
R: reel
K: Emin
|~E3F G2 EF|G2 AG FDDF|EDEF GFGB|dBAc BEED|
~E3F G2 EF|GBAG FDDF|EDEF GFGB|dBAc B~E3||
|efed (3B^cd ef|geag fddf|efed Bdeg|fedf efgf|
efed (3B^cd ef|geag fddf|~g3e f2{a}fe|dBAc BEED||
|:GBdg (3ege dB|AD (3FED FGAc|BGEF GFGB|dBAc BEED:|
